; generated by PrusaSlicer 2.7.1+MacOS-arm64 on 2024-01-07 at 16:02:36 UTC


;
;

;
;
; 

; external perimeters extrusion width = 0.40mm
; perimeters extrusion width = 0.40mm
; infill extrusion width = 0.40mm
; solid infill extrusion width = 0.40mm
; top infill extrusion width = 0.40mm
; support material extrusion width = 0.40mm
; first layer extrusion width = 0.40mm


EXCLUDE_OBJECT_DEFINE NAME=ManualFlipperKnob_2 CENTER=110.000,109.998 POLYGON=[[110.729,91.213],[112.239,91.332],[114.113,91.654],[115.446,92.004],[117.362,92.700],[119.099,93.547],[120.284,94.260],[121.817,95.377],[122.860,96.285],[124.621,98.181],[125.515,99.381],[126.365,100.745],[126.953,101.871],[127.545,103.245],[128.329,105.815],[130.882,106.723],[131.367,107.009],[131.559,107.216],[131.810,107.720],[131.859,107.998],[131.928,110.666],[131.859,111.998],[131.810,112.277],[131.559,112.781],[131.138,113.154],[130.882,113.274],[128.329,114.182],[127.545,116.752],[126.953,118.125],[126.106,119.696],[125.284,120.946],[124.177,122.346],[123.151,123.433],[121.817,124.620],[120.452,125.625],[119.099,126.450],[117.394,127.283],[115.639,127.933],[113.935,128.382],[112.333,128.653],[110.410,128.794],[108.963,128.770],[107.076,128.570],[105.719,128.305],[104.140,127.862],[102.606,127.283],[100.901,126.450],[99.716,125.736],[98.183,124.620],[97.140,123.712],[95.379,121.816],[94.485,120.616],[93.635,119.252],[93.047,118.125],[92.455,116.752],[91.671,114.182],[89.118,113.274],[88.862,113.154],[88.441,112.781],[88.190,112.277],[88.141,111.998],[88.072,109.331],[88.141,107.998],[88.190,107.720],[88.441,107.216],[88.633,107.009],[89.118,106.723],[91.671,105.815],[92.455,103.245],[93.047,101.871],[93.894,100.301],[94.716,99.051],[95.823,97.651],[96.849,96.563],[98.183,95.377],[99.548,94.371],[100.901,93.547],[102.237,92.876],[103.896,92.217],[105.719,91.692],[107.228,91.404],[108.963,91.227]]

;TYPE:Custom
M104 S0 ; Stops PrusaSlicer from sending temp waits separately
M140 S0
start_print BED_TEMP=55 EXTRUDER_TEMP=210
G21 ; set units to millimeters
G90 ; use absolute coordinates
M83 ; use relative distances for extrusion
; Filament gcode
SET_PRESSURE_ADVANCE ADVANCE=0.4
M107
;LAYER_CHANGE
;Z:0.2
;HEIGHT:0.2
;BEFORE_LAYER_CHANGE
G92 E0
;0.2


G1 Z.2 F12000
;AFTER_LAYER_CHANGE
;0.2
G10 ; retract
G1 X93.023 Y94.675
G11 ; unretract
;TYPE:Skirt/Brim
;WIDTH:0.4
G1 F1200
G1 X102.831 Y85.099 E.39885
G1 X104.363 Y84.165 E.05221
G1 X105.664 Y83.951 E.03836
G1 X119.764 Y83.951 E.41027
G1 X121.585 Y84.381 E.05444
G1 X127.013 Y87.095 E.17658
G1 X128.071 Y87.858 E.03796
G1 X129.428 Y89.215 E.05584
G1 X130.408 Y90.795 E.0541
G1 X135.82 Y107.017 E.49759
G1 X135.999 Y109.331 E.06753
G1 X135.925 Y112.209 E.08377
G1 X135.82 Y112.979 E.02261
G1 X135.612 Y113.732 E.02273
G1 X135.164 Y114.695 E.0309
G1 X127.991 Y124.119 E.34461
G1 X126.977 Y125.321 E.04576
G1 X125.08 Y127.193 E.07755
G1 X123.912 Y128.152 E.04397
G1 X122.611 Y129.077 E.04645
G1 X112.418 Y135.432 E.34951
G1 X110.264 Y136.049 E.0652
G1 X100.236 Y136.049 E.29179
G1 X98.415 Y135.619 E.05444
G1 X92.987 Y132.905 E.17658
G1 X91.929 Y132.142 E.03796
G1 X90.572 Y130.785 E.05584
G1 X89.592 Y129.205 E.0541
G1 X84.332 Y113.576 E.47983
G1 X84.131 Y112.701 E.02612
G1 X84.007 Y110.876 E.05323
G1 X84.075 Y107.788 E.08987
G1 X84.18 Y107.017 E.02264
G1 X84.388 Y106.265 E.0227
G1 X84.836 Y105.302 E.0309
G1 X91.979 Y95.916 E.3432
G1 X92.984 Y94.721 E.04543
G1 X93.232 Y94.975 F12000
G1 F1200
G1 X103.08 Y85.355 E.40058
G1 X104.551 Y84.479 E.04982
G1 X105.664 Y84.308 E.03277
G1 X119.764 Y84.308 E.41027
G1 X121.425 Y84.7 E.04966
G1 X126.853 Y87.415 E.1766
G1 X127.818 Y88.11 E.0346
G1 X129.176 Y89.467 E.05586
G1 X130.069 Y90.909 E.04935
G1 X135.468 Y107.079 E.49604
G1 X135.642 Y109.331 E.06572
G1 X135.568 Y112.19 E.08322
G1 X135.279 Y113.604 E.04199
G1 X134.861 Y114.506 E.02893
G1 X127.71 Y123.9 E.34353
G1 X126.704 Y125.092 E.04539
G1 X124.841 Y126.928 E.07611
G1 X123.693 Y127.87 E.04321
G1 X122.431 Y128.768 E.04507
G1 X112.229 Y135.129 E.34983
G1 X110.264 Y135.692 E.05948
G1 X100.236 Y135.692 E.29179
G1 X98.575 Y135.3 E.04966
G1 X93.147 Y132.585 E.1766
G1 X92.182 Y131.89 E.0346
G1 X90.824 Y130.533 E.05586
G1 X89.931 Y129.091 E.04935
G1 X84.67 Y113.462 E.47984
G1 X84.483 Y112.639 E.02456
G1 X84.363 Y110.857 E.05197
G1 X84.432 Y107.807 E.08877
G1 X84.721 Y106.393 E.04199
G1 X85.139 Y105.491 E.02893
G1 X92.262 Y96.133 E.3422
G1 X93.193 Y95.021 E.0422
G1 X93.467 Y95.25 F12000
G1 F1200
G1 X93.497 Y95.214 E.00136
G1 X103.328 Y85.612 E.39986
G1 X104.736 Y84.796 E.04735
G1 X105.664 Y84.665 E.02727
G1 X119.764 Y84.665 E.41027
G1 X121.265 Y85.02 E.04488
G1 X126.694 Y87.734 E.17661
G1 X127.566 Y88.363 E.03129
G1 X128.923 Y89.72 E.05584
G1 X129.731 Y91.023 E.04461
G1 X135.117 Y107.141 E.49448
G1 X135.285 Y109.331 E.06391
G1 X135.211 Y112.172 E.08269
G1 X134.945 Y113.477 E.03875
G1 X134.558 Y114.317 E.02691
G1 X127.354 Y123.772 E.34587
G1 X125.652 Y125.679 E.07437
G1 X124.601 Y126.663 E.04189
G1 X123.474 Y127.588 E.04242
G1 X122.248 Y128.462 E.04381
G1 X112.04 Y134.826 E.35002
G1 X110.264 Y135.335 E.05376
G1 X100.236 Y135.335 E.29179
G1 X98.735 Y134.98 E.04488
G1 X93.307 Y132.266 E.17658
G1 X92.434 Y131.637 E.03131
G1 X91.077 Y130.28 E.05584
G1 X90.269 Y128.977 E.04461
G1 X85.008 Y113.348 E.47984
G1 X84.835 Y112.578 E.02296
G1 X84.72 Y110.839 E.05071
G1 X84.789 Y107.825 E.08772
G1 X85.055 Y106.52 E.03875
G1 X85.442 Y105.68 E.02691
G1 X92.545 Y96.351 E.34118
G1 X93.428 Y95.296 E.04003
EXCLUDE_OBJECT_START NAME=ManualFlipperKnob_2
G10 ; retract
G1 X93.428 Y95.296 F12000
G1 X119.764 Y89.38
G11 ; unretract
;TYPE:Support material
G1 F1200
G1 X122.478 Y89.38 E.07897
G1 X122.478 Y90.737 E.03949
G1 X125.192 Y90.737 E.07897
G1 X125.192 Y92.094 E.03949
G1 X126.549 Y92.094 E.03949
G1 X126.549 Y99.408 E.21282
G1 X126.057 Y99.408 E.01432
G1 X124.845 Y97.76 E.05952
G1 X123.348 Y96.142 E.06414
G1 X123.12 Y96.009 E.00768
G1 X110.03 Y96.009 E.38089
G1 X110.03 Y91.014 E.14534
G1 X109.755 Y90.753 E.01103
G1 X108.385 Y90.827 E.03992
G1 X107.155 Y90.97 E.03603
G1 X105.664 Y91.261 E.0442
G1 X105.664 Y88.022 E.09425
G1 X119.764 Y88.022 E.41027
G1 X119.764 Y89.326 E.03794
G1 X125.87 Y98.851 F12000
G1 F1200
G1 X125.87 Y92.415 E.18727
G1 X125.473 Y92.415 E.01155
G1 X125.473 Y98.044 E.16379
G1 X125.077 Y97.536 E.01874
G1 X125.077 Y92.415 E.14901
G1 X124.871 Y92.415 E.00599
G1 X124.871 Y91.058 E.03949
G1 X124.68 Y91.058 E.00556
G1 X124.68 Y97.082 E.17528
G1 X124.283 Y96.636 E.01737
G1 X124.283 Y91.058 E.16231
G1 X123.886 Y91.058 E.01155
G1 X123.886 Y96.232 E.15055
G1 X123.49 Y95.83 E.01642
G1 X123.49 Y91.058 E.13885
G1 X123.093 Y91.058 E.01155
G1 X123.093 Y95.688 E.13472
G1 X122.696 Y95.688 E.01155
G1 X122.696 Y91.058 E.13472
G1 X122.299 Y91.058 E.01155
G1 X122.299 Y95.688 E.13472
G1 X121.903 Y95.688 E.01152
G1 X121.903 Y89.701 E.17421
G1 X121.506 Y89.701 E.01155
G1 X121.506 Y95.688 E.17421
G1 X121.109 Y95.688 E.01155
G1 X121.109 Y89.701 E.17421
G1 X120.712 Y89.701 E.01155
G1 X120.712 Y95.688 E.17421
G1 X120.316 Y95.688 E.01152
G1 X120.316 Y89.701 E.17421
G1 X119.919 Y89.701 E.01155
G1 X119.919 Y95.688 E.17421
G1 X119.522 Y95.688 E.01155
G1 X119.522 Y89.701 E.17421
G1 X119.442 Y89.701 E.00233
G1 X119.442 Y88.344 E.03949
G1 X119.125 Y88.344 E.00922
G1 X119.125 Y95.688 E.21369
G1 X118.729 Y95.688 E.01152
G1 X118.729 Y88.344 E.21369
G1 X118.332 Y88.344 E.01155
G1 X118.332 Y95.688 E.21369
G1 X117.935 Y95.688 E.01155
G1 X117.935 Y88.344 E.21369
G1 X117.538 Y88.344 E.01155
G1 X117.538 Y95.688 E.21369
G1 X117.142 Y95.688 E.01152
G1 X117.142 Y88.344 E.21369
G1 X116.745 Y88.344 E.01155
G1 X116.745 Y95.688 E.21369
G1 X116.348 Y95.688 E.01155
G1 X116.348 Y88.344 E.21369
G1 X115.951 Y88.344 E.01155
G1 X115.951 Y95.688 E.21369
G1 X115.555 Y95.688 E.01152
G1 X115.555 Y88.344 E.21369
G1 X115.158 Y88.344 E.01155
G1 X115.158 Y95.688 E.21369
G1 X114.761 Y95.688 E.01155
G1 X114.761 Y88.344 E.21369
G1 X114.364 Y88.344 E.01155
G1 X114.364 Y95.688 E.21369
G1 X113.968 Y95.688 E.01152
G1 X113.968 Y88.344 E.21369
G1 X113.571 Y88.344 E.01155
G1 X113.571 Y95.688 E.21369
G1 X113.174 Y95.688 E.01155
G1 X113.174 Y88.344 E.21369
G1 X112.777 Y88.344 E.01155
G1 X112.777 Y95.688 E.21369
G1 X112.381 Y95.688 E.01152
G1 X112.381 Y88.344 E.21369
G1 X111.984 Y88.344 E.01155
G1 X111.984 Y95.688 E.21369
G1 X111.587 Y95.688 E.01155
G1 X111.587 Y88.344 E.21369
G1 X111.19 Y88.344 E.01155
G1 X111.19 Y95.688 E.21369
G1 X110.794 Y95.688 E.01152
G1 X110.794 Y88.344 E.21369
G1 X110.397 Y88.344 E.01155
G1 X110.351 Y95.688 E.2137
G1 X110.351 Y90.876 E.14002
G1 X110 Y90.542 E.0141
G1 X110 Y88.344 E.06396
G1 X109.603 Y88.344 E.01155
G1 X109.603 Y90.44 E.06099
G1 X109.206 Y90.461 E.01157
G1 X109.206 Y88.344 E.0616
G1 X108.81 Y88.344 E.01152
G1 X108.81 Y90.482 E.06221
G1 X108.413 Y90.503 E.01157
G1 X108.413 Y88.344 E.06282
G1 X108.016 Y88.344 E.01155
G1 X108.016 Y90.545 E.06404
G1 X107.619 Y90.591 E.01163
G1 X107.619 Y88.344 E.06538
G1 X107.223 Y88.344 E.01152
G1 X107.223 Y90.638 E.06675
G1 X106.826 Y90.703 E.01171
G1 X106.826 Y88.344 E.06864
G1 X106.429 Y88.344 E.01155
G1 X106.429 Y90.775 E.07074
G1 X106.032 Y90.847 E.01174
G1 X106.032 Y88.183 E.07752
G10 ; retract
G1 X106.032 Y88.183 F12000
G1 X94.453 Y121.332
G11 ; unretract
G1 F1200
G1 X95.879 Y123.067 E.06535
G1 X96.719 Y123.921 E.03486
G1 X96.88 Y123.988 E.00507
G1 X109.97 Y123.988 E.38089
G1 X109.97 Y128.981 E.14528
G1 X110.24 Y129.241 E.01091
G1 X111.621 Y129.17 E.04024
G1 X111.621 Y130.62 E.04219
G1 X110.264 Y130.62 E.03949
G1 X110.264 Y131.978 E.03951
G1 X100.236 Y131.978 E.29179
G1 X100.236 Y130.62 E.03951
G1 X97.522 Y130.62 E.07897
G1 X97.522 Y129.263 E.03949
G1 X94.808 Y129.263 E.07897
G1 X94.808 Y127.906 E.03949
G1 X93.451 Y127.906 E.03949
G1 X93.451 Y120.678 E.21032
G1 X93.898 Y120.525 E.01375
G1 X94.422 Y121.288 E.02693
G10 ; retract
G1 X94.422 Y121.288 F12000
G1 X111.19 Y130.46
G11 ; unretract
G1 F1200
G1 X111.19 Y129.515 E.0275
G1 X110.794 Y129.537 E.01154
G1 X110.794 Y130.299 E.02217
G1 X110.397 Y130.299 E.01155
G1 X110.397 Y129.556 E.02162
G1 X110.116 Y129.567 E.00818
G1 X110 Y129.456 E.00467
G1 X109.943 Y131.656 E.06404
G1 X109.603 Y131.656 E.00989
G1 X109.603 Y124.309 E.21378
G1 X109.206 Y124.309 E.01155
G1 X109.206 Y131.656 E.21378
G1 X108.81 Y131.656 E.01152
G1 X108.81 Y124.309 E.21378
G1 X108.413 Y124.309 E.01155
G1 X108.413 Y131.656 E.21378
G1 X108.016 Y131.656 E.01155
G1 X108.016 Y124.309 E.21378
G1 X107.619 Y124.309 E.01155
G1 X107.619 Y131.656 E.21378
G1 X107.223 Y131.656 E.01152
G1 X107.223 Y124.309 E.21378
G1 X106.826 Y124.309 E.01155
G1 X106.826 Y131.656 E.21378
G1 X106.429 Y131.656 E.01155
G1 X106.429 Y124.309 E.21378
G1 X106.032 Y124.309 E.01155
G1 X106.032 Y131.656 E.21378
G1 X105.636 Y131.656 E.01152
G1 X105.636 Y124.309 E.21378
G1 X105.239 Y124.309 E.01155
G1 X105.239 Y131.656 E.21378
G1 X104.842 Y131.656 E.01155
G1 X104.842 Y124.309 E.21378
G1 X104.445 Y124.309 E.01155
G1 X104.445 Y131.656 E.21378
G1 X104.049 Y131.656 E.01152
G1 X104.049 Y124.309 E.21378
G1 X103.652 Y124.309 E.01155
G1 X103.652 Y131.656 E.21378
G1 X103.255 Y131.656 E.01155
G1 X103.255 Y124.309 E.21378
G1 X102.858 Y124.309 E.01155
G1 X102.858 Y131.656 E.21378
G1 X102.462 Y131.656 E.01152
G1 X102.462 Y124.309 E.21378
G1 X102.065 Y124.309 E.01155
G1 X102.065 Y131.656 E.21378
G1 X101.668 Y131.656 E.01155
G1 X101.668 Y124.309 E.21378
G1 X101.271 Y124.309 E.01155
G1 X101.271 Y131.656 E.21378
G1 X100.875 Y131.656 E.01152
G1 X100.875 Y124.309 E.21378
G1 X100.478 Y124.309 E.01155
G1 X100.478 Y130.299 E.17429
G1 X100.081 Y130.299 E.01155
G1 X100.081 Y124.309 E.17429
G1 X99.684 Y124.309 E.01155
G1 X99.684 Y130.299 E.17429
G1 X99.288 Y130.299 E.01152
G1 X99.288 Y124.309 E.17429
G1 X98.891 Y124.309 E.01155
G1 X98.891 Y130.299 E.17429
G1 X98.494 Y130.299 E.01155
G1 X98.494 Y124.309 E.17429
G1 X98.097 Y124.309 E.01155
G1 X98.097 Y130.299 E.17429
G1 X97.843 Y130.299 E.00739
G1 X97.843 Y128.942 E.03949
G1 X97.701 Y128.942 E.00413
G1 X97.701 Y124.309 E.13481
G1 X97.304 Y124.309 E.01155
G1 X97.304 Y128.942 E.13481
G1 X96.907 Y128.942 E.01155
G1 X96.907 Y124.309 E.13481
G1 X96.51 Y124.167 E.01227
G1 X96.51 Y128.942 E.13894
G1 X96.114 Y128.942 E.01152
G1 X96.114 Y123.765 E.15064
G1 X95.717 Y123.36 E.0165
G1 X95.717 Y128.942 E.16242
G1 X95.32 Y128.942 E.01155
G1 X95.32 Y122.915 E.17537
G1 X94.923 Y122.461 E.01755
G1 X94.923 Y127.585 E.1491
G1 X94.527 Y127.585 E.01152
G1 X94.527 Y121.953 E.16388
G1 X94.13 Y121.43 E.01911
G1 X94.13 Y127.746 E.18378
G10 ; retract
G1 X94.13 Y127.746 F12000
G1 X109.219 Y97.533
G11 ; unretract
;TYPE:Perimeter
;WIDTH:0.399999
G1 F1200
G1 X109.369 Y97.563 E.00445
G1 X122.565 Y97.563 E.38397
G1 X122.979 Y97.985 E.0172
G1 X123.655 Y98.759 E.0299
G1 X124.282 Y99.568 E.02978
G1 X124.864 Y100.415 E.0299
G1 X125.395 Y101.295 E.02991
G1 X125.874 Y102.202 E.02985
G1 X126.299 Y103.135 E.02983
G1 X126.67 Y104.093 E.02989
G1 X126.893 Y104.785 E.02116
G1 X127.322 Y106.332 E.04671
G1 X127.527 Y106.629 E.0105
G1 X127.845 Y106.826 E.01088
G1 X130.419 Y107.74 E.07948
G1 X130.656 Y107.908 E.00845
G1 X130.752 Y108.166 E.00801
G1 X130.813 Y109.416 E.03642
G1 X130.813 Y110.637 E.03553
G1 X130.752 Y111.831 E.03479
G1 X130.656 Y112.089 E.00801
G1 X130.419 Y112.256 E.00844
G1 X127.845 Y113.171 E.07949
G1 X127.606 Y113.3 E.0079
G1 X127.425 Y113.483 E.00749
G1 X127.281 Y113.786 E.00976
G1 X126.961 Y115.009 E.03678
G1 X126.61 Y116.071 E.03255
G1 X126.194 Y117.107 E.03248
G1 X125.714 Y118.112 E.03241
G1 X125.171 Y119.088 E.0325
G1 X124.568 Y120.026 E.03245
G1 X123.907 Y120.924 E.03244
G1 X123.19 Y121.78 E.03249
G1 X122.421 Y122.587 E.03244
G1 X121.604 Y123.344 E.03241
G1 X120.739 Y124.05 E.03249
G1 X119.833 Y124.698 E.03241
G1 X118.886 Y125.289 E.03248
G1 X117.905 Y125.819 E.03244
G1 X116.886 Y126.288 E.03264
G1 X115.851 Y126.688 E.03229
G1 X114.794 Y127.022 E.03225
G1 X113.705 Y127.291 E.03264
G1 X112.584 Y127.494 E.03315
G1 X111.524 Y127.617 E.03105
G1 X111.524 Y123.326 E.12486
G1 X111.441 Y122.949 E.01123
G1 X111.247 Y122.68 E.00965
G1 X110.984 Y122.506 E.00918
G1 X110.631 Y122.434 E.01048
G1 X97.435 Y122.434 E.38397
G1 X97.021 Y122.012 E.0172
G1 X96.345 Y121.238 E.0299
G1 X95.718 Y120.429 E.02978
G1 X95.136 Y119.582 E.0299
G1 X94.605 Y118.702 E.02991
G1 X94.126 Y117.794 E.02987
G1 X93.701 Y116.862 E.02981
G1 X93.33 Y115.904 E.02989
G1 X93.107 Y115.212 E.02116
G1 X92.678 Y113.664 E.04674
G1 X92.473 Y113.368 E.01048
G1 X92.155 Y113.171 E.01088
G1 X89.581 Y112.256 E.07949
G1 X89.344 Y112.089 E.00844
G1 X89.248 Y111.831 E.00801
G1 X89.187 Y110.637 E.03479
G1 X89.187 Y109.36 E.03716
G1 X89.248 Y108.166 E.03479
G1 X89.344 Y107.908 E.00801
G1 X89.581 Y107.74 E.00845
G1 X92.155 Y106.826 E.07948
G1 X92.394 Y106.696 E.00792
G1 X92.575 Y106.514 E.00747
G1 X92.719 Y106.211 E.00976
G1 X93.041 Y104.983 E.03694
G1 X93.39 Y103.925 E.03242
G1 X93.806 Y102.891 E.03243
G1 X94.286 Y101.884 E.03246
G1 X94.829 Y100.909 E.03247
G1 X95.432 Y99.971 E.03245
G1 X96.093 Y99.073 E.03244
G1 X96.809 Y98.219 E.03243
G1 X97.579 Y97.41 E.0325
G1 X98.397 Y96.652 E.03245
G1 X99.261 Y95.947 E.03245
G1 X100.169 Y95.297 E.03249
G1 X101.114 Y94.707 E.03242
G1 X102.097 Y94.177 E.0325
G1 X103.108 Y93.711 E.03239
G1 X104.15 Y93.309 E.0325
G1 X105.213 Y92.973 E.03244
G1 X106.295 Y92.705 E.03243
G1 X107.392 Y92.506 E.03244
G1 X108.476 Y92.38 E.03175
G1 X108.476 Y96.671 E.12486
G1 X108.559 Y97.047 E.0112
G1 X108.753 Y97.317 E.00967
G1 X109.016 Y97.491 E.00918
G1 X109.161 Y97.52 E.0043
G1 X109.285 Y97.185 F12000
G1 F1200
G1 X109.369 Y97.206 E.00252
G1 X122.715 Y97.206 E.38833
G1 X123.241 Y97.742 E.02185
G1 X123.93 Y98.532 E.0305
G1 X124.571 Y99.358 E.03042
G1 X125.164 Y100.221 E.03047
G1 X125.706 Y101.119 E.03052
G1 X126.195 Y102.045 E.03047
G1 X126.628 Y102.996 E.0304
G1 X127.007 Y103.974 E.03052
G1 X127.329 Y104.973 E.03054
G1 X127.626 Y106.119 E.03445
G1 X127.739 Y106.335 E.00709
G1 X127.965 Y106.489 E.00796
G1 X130.486 Y107.385 E.07785
G1 X130.857 Y107.584 E.01225
G1 X131.021 Y107.797 E.00782
G1 X131.106 Y108.109 E.00941
G1 X131.17 Y109.416 E.03808
G1 X131.17 Y110.646 E.03579
G1 X131.112 Y111.771 E.03278
